images/50206930.svg

<?xml version="1.0" encoding="UTF-8"?>
<svg xmlns="http://www.w3.org/2000/svg" xmlns:xlink="http://www.w3.org/1999/xlink" width="300pt" height="300pt" viewBox="0 0 300 300" version="1.1">
<defs>
<g>
<symbol overflow="visible" id="glyph0-0">
<path style="stroke:none;" d="M 0.453125 1.59375 L 0.453125 -6.34375 L 4.953125 -6.34375 L 4.953125 1.59375 Z M 0.953125 1.09375 L 4.453125 1.09375 L 4.453125 -5.84375 L 0.953125 -5.84375 Z M 0.953125 1.09375 "/>
</symbol>
<symbol overflow="visible" id="glyph0-1">
<path style="stroke:none;" d="M 3.546875 -5.953125 C 2.898438 -5.953125 2.382812 -5.710938 2 -5.234375 C 1.625 -4.753906 1.4375 -4.101562 1.4375 -3.28125 C 1.4375 -2.445312 1.625 -1.789062 2 -1.3125 C 2.382812 -0.832031 2.898438 -0.59375 3.546875 -0.59375 C 4.191406 -0.59375 4.703125 -0.832031 5.078125 -1.3125 C 5.453125 -1.789062 5.640625 -2.445312 5.640625 -3.28125 C 5.640625 -4.101562 5.453125 -4.753906 5.078125 -5.234375 C 4.703125 -5.710938 4.191406 -5.953125 3.546875 -5.953125 Z M 3.546875 -6.6875 C 4.460938 -6.6875 5.195312 -6.375 5.75 -5.75 C 6.300781 -5.132812 6.578125 -4.3125 6.578125 -3.28125 C 6.578125 -2.238281 6.300781 -1.410156 5.75 -0.796875 C 5.195312 -0.179688 4.460938 0.125 3.546875 0.125 C 2.617188 0.125 1.878906 -0.179688 1.328125 -0.796875 C 0.773438 -1.410156 0.5 -2.238281 0.5 -3.28125 C 0.5 -4.3125 0.773438 -5.132812 1.328125 -5.75 C 1.878906 -6.375 2.617188 -6.6875 3.546875 -6.6875 Z M 3.546875 -6.6875 "/>
</symbol>
<symbol overflow="visible" id="glyph0-2">
<path style="stroke:none;" d="M 0.890625 -6.5625 L 2.078125 -6.5625 L 4.984375 -1.078125 L 4.984375 -6.5625 L 5.84375 -6.5625 L 5.84375 0 L 4.65625 0 L 1.75 -5.484375 L 1.75 0 L 0.890625 0 Z M 0.890625 -6.5625 "/>
</symbol>
<symbol overflow="visible" id="glyph0-3">
<path style="stroke:none;" d="M 0.890625 -6.5625 L 1.765625 -6.5625 L 1.765625 -3.875 L 5 -3.875 L 5 -6.5625 L 5.890625 -6.5625 L 5.890625 0 L 5 0 L 5 -3.125 L 1.765625 -3.125 L 1.765625 0 L 0.890625 0 Z M 0.890625 -6.5625 "/>
</symbol>
</g>
</defs>
<g id="surface18093">
<rect x="0" y="0" width="300" height="300" style="fill:rgb(100%,100%,100%);fill-opacity:1;stroke:none;"/>
<path style="fill:none;stroke-width:1.2;stroke-linecap:butt;stroke-linejoin:miter;stroke:rgb(100%,0%,0%);stroke-opacity:1;stroke-miterlimit:10;" d="M 110.929688 151.75 L 110.105469 161.316406 "/>
<path style="fill:none;stroke-width:1.2;stroke-linecap:butt;stroke-linejoin:miter;stroke:rgb(0%,0%,0%);stroke-opacity:1;stroke-miterlimit:10;" d="M 110.105469 161.316406 L 109.28125 170.878906 "/>
<path style="fill:none;stroke-width:1.2;stroke-linecap:butt;stroke-linejoin:miter;stroke:rgb(100%,0%,0%);stroke-opacity:1;stroke-miterlimit:10;" d="M 115.429688 152.140625 L 114.605469 161.703125 "/>
<path style="fill:none;stroke-width:1.2;stroke-linecap:butt;stroke-linejoin:miter;stroke:rgb(0%,0%,0%);stroke-opacity:1;stroke-miterlimit:10;" d="M 114.605469 161.703125 L 113.78125 171.269531 "/>
<path style=" stroke:none;fill-rule:nonzero;fill:rgb(100%,100%,100%);fill-opacity:1;" d="M 109.179688 146.445312 L 117.179688 146.445312 L 117.179688 157.445312 L 109.179688 157.445312 Z M 109.179688 146.445312 "/>
<g style="fill:rgb(100%,0%,0%);fill-opacity:1;">
  <use xlink:href="#glyph0-1" x="109.179688" y="155.108398"/>
</g>
<path style="fill:none;stroke-width:1.2;stroke-linecap:butt;stroke-linejoin:miter;stroke:rgb(0%,0%,0%);stroke-opacity:1;stroke-miterlimit:10;" d="M 111.53125 171.074219 L 119.402344 176.570312 "/>
<path style="fill:none;stroke-width:1.2;stroke-linecap:butt;stroke-linejoin:miter;stroke:rgb(0%,0%,100%);stroke-opacity:1;stroke-miterlimit:10;" d="M 119.402344 176.570312 L 127.273438 182.066406 "/>
<path style="fill:none;stroke-width:1.2;stroke-linecap:butt;stroke-linejoin:miter;stroke:rgb(0%,0%,0%);stroke-opacity:1;stroke-miterlimit:10;" d="M 111.53125 171.074219 L 102.835938 175.140625 "/>
<path style="fill:none;stroke-width:1.2;stroke-linecap:butt;stroke-linejoin:miter;stroke:rgb(0%,0%,100%);stroke-opacity:1;stroke-miterlimit:10;" d="M 102.835938 175.140625 L 94.140625 179.210938 "/>
<path style="fill:none;stroke-width:1.2;stroke-linecap:butt;stroke-linejoin:miter;stroke:rgb(0%,0%,100%);stroke-opacity:1;stroke-miterlimit:10;" d="M 127.273438 182.066406 L 135.96875 178 "/>
<path style="fill:none;stroke-width:1.2;stroke-linecap:butt;stroke-linejoin:miter;stroke:rgb(0%,0%,0%);stroke-opacity:1;stroke-miterlimit:10;" d="M 135.96875 178 L 144.664062 173.929688 "/>
<path style=" stroke:none;fill-rule:nonzero;fill:rgb(100%,100%,100%);fill-opacity:1;" d="M 120.273438 176.566406 L 134.273438 176.566406 L 134.273438 187.566406 L 120.273438 187.566406 Z M 120.273438 176.566406 "/>
<g style="fill:rgb(0%,0%,100%);fill-opacity:1;">
  <use xlink:href="#glyph0-2" x="120.273438" y="185.229492"/>
  <use xlink:href="#glyph0-3" x="127.250977" y="185.229492"/>
</g>
<path style="fill:none;stroke-width:1.2;stroke-linecap:butt;stroke-linejoin:miter;stroke:rgb(0%,0%,0%);stroke-opacity:1;stroke-miterlimit:10;" d="M 144.664062 173.929688 L 160.40625 184.921875 "/>
<path style="fill:none;stroke-width:1.2;stroke-linecap:butt;stroke-linejoin:miter;stroke:rgb(0%,0%,0%);stroke-opacity:1;stroke-miterlimit:10;" d="M 148.824219 171.324219 L 161.417969 180.117188 "/>
<path style="fill:none;stroke-width:1.2;stroke-linecap:butt;stroke-linejoin:miter;stroke:rgb(0%,0%,0%);stroke-opacity:1;stroke-miterlimit:10;" d="M 146.3125 154.800781 L 144.664062 173.929688 "/>
<path style="fill:none;stroke-width:1.2;stroke-linecap:butt;stroke-linejoin:miter;stroke:rgb(0%,0%,0%);stroke-opacity:1;stroke-miterlimit:10;" d="M 160.40625 184.921875 L 177.796875 176.785156 "/>
<path style="fill:none;stroke-width:1.2;stroke-linecap:butt;stroke-linejoin:miter;stroke:rgb(0%,0%,0%);stroke-opacity:1;stroke-miterlimit:10;" d="M 177.796875 176.785156 L 179.445312 157.65625 "/>
<path style="fill:none;stroke-width:1.2;stroke-linecap:butt;stroke-linejoin:miter;stroke:rgb(0%,0%,0%);stroke-opacity:1;stroke-miterlimit:10;" d="M 173.460938 174.484375 L 174.777344 159.179688 "/>
<path style="fill:none;stroke-width:1.2;stroke-linecap:butt;stroke-linejoin:miter;stroke:rgb(0%,0%,0%);stroke-opacity:1;stroke-miterlimit:10;" d="M 179.445312 157.65625 L 163.703125 146.664062 "/>
<path style="fill:none;stroke-width:1.2;stroke-linecap:butt;stroke-linejoin:miter;stroke:rgb(0%,0%,0%);stroke-opacity:1;stroke-miterlimit:10;" d="M 179.445312 157.65625 L 196.835938 149.519531 "/>
<path style="fill:none;stroke-width:1.2;stroke-linecap:butt;stroke-linejoin:miter;stroke:rgb(0%,0%,0%);stroke-opacity:1;stroke-miterlimit:10;" d="M 163.703125 146.664062 L 146.3125 154.800781 "/>
<path style="fill:none;stroke-width:1.2;stroke-linecap:butt;stroke-linejoin:miter;stroke:rgb(0%,0%,0%);stroke-opacity:1;stroke-miterlimit:10;" d="M 163.878906 151.570312 L 149.964844 158.078125 "/>
<path style="fill:none;stroke-width:1.2;stroke-linecap:butt;stroke-linejoin:miter;stroke:rgb(0%,0%,0%);stroke-opacity:1;stroke-miterlimit:10;" d="M 196.835938 149.519531 L 212.578125 160.511719 "/>
<path style="fill:none;stroke-width:1.2;stroke-linecap:butt;stroke-linejoin:miter;stroke:rgb(0%,0%,0%);stroke-opacity:1;stroke-miterlimit:10;" d="M 212.578125 160.511719 L 229.96875 152.375 "/>
<path style="fill:none;stroke-width:1.2;stroke-linecap:butt;stroke-linejoin:miter;stroke:rgb(0%,0%,0%);stroke-opacity:1;stroke-miterlimit:10;" d="M 229.96875 152.375 L 245.710938 163.367188 "/>
<path style="fill:none;stroke-width:1.2;stroke-linecap:butt;stroke-linejoin:miter;stroke:rgb(0%,0%,0%);stroke-opacity:1;stroke-miterlimit:10;" d="M 234.128906 149.769531 L 246.722656 158.566406 "/>
<path style="fill:none;stroke-width:1.2;stroke-linecap:butt;stroke-linejoin:miter;stroke:rgb(0%,0%,0%);stroke-opacity:1;stroke-miterlimit:10;" d="M 231.617188 133.246094 L 229.96875 152.375 "/>
<path style="fill:none;stroke-width:1.2;stroke-linecap:butt;stroke-linejoin:miter;stroke:rgb(0%,0%,0%);stroke-opacity:1;stroke-miterlimit:10;" d="M 245.710938 163.367188 L 263.101562 155.230469 "/>
<path style="fill:none;stroke-width:1.2;stroke-linecap:butt;stroke-linejoin:miter;stroke:rgb(0%,0%,0%);stroke-opacity:1;stroke-miterlimit:10;" d="M 263.101562 155.230469 L 263.925781 145.667969 "/>
<path style="fill:none;stroke-width:1.2;stroke-linecap:butt;stroke-linejoin:miter;stroke:rgb(0%,0%,100%);stroke-opacity:1;stroke-miterlimit:10;" d="M 263.925781 145.667969 L 264.75 136.101562 "/>
<path style="fill:none;stroke-width:1.2;stroke-linecap:butt;stroke-linejoin:miter;stroke:rgb(0%,0%,0%);stroke-opacity:1;stroke-miterlimit:10;" d="M 258.765625 152.929688 L 259.425781 145.277344 "/>
<path style="fill:none;stroke-width:1.2;stroke-linecap:butt;stroke-linejoin:miter;stroke:rgb(0%,0%,100%);stroke-opacity:1;stroke-miterlimit:10;" d="M 259.425781 145.277344 L 260.085938 137.628906 "/>
<path style="fill:none;stroke-width:1.2;stroke-linecap:butt;stroke-linejoin:miter;stroke:rgb(0%,0%,100%);stroke-opacity:1;stroke-miterlimit:10;" d="M 264.75 136.101562 L 256.878906 130.605469 "/>
<path style="fill:none;stroke-width:1.2;stroke-linecap:butt;stroke-linejoin:miter;stroke:rgb(0%,0%,0%);stroke-opacity:1;stroke-miterlimit:10;" d="M 256.878906 130.605469 L 249.007812 125.109375 "/>
<path style=" stroke:none;fill-rule:nonzero;fill:rgb(100%,100%,100%);fill-opacity:1;" d="M 261.75 130.601562 L 268.75 130.601562 L 268.75 141.601562 L 261.75 141.601562 Z M 261.75 130.601562 "/>
<g style="fill:rgb(0%,0%,100%);fill-opacity:1;">
  <use xlink:href="#glyph0-2" x="261.75" y="139.264648"/>
</g>
<path style="fill:none;stroke-width:1.2;stroke-linecap:butt;stroke-linejoin:miter;stroke:rgb(0%,0%,0%);stroke-opacity:1;stroke-miterlimit:10;" d="M 249.007812 125.109375 L 231.617188 133.246094 "/>
<path style="fill:none;stroke-width:1.2;stroke-linecap:butt;stroke-linejoin:miter;stroke:rgb(0%,0%,0%);stroke-opacity:1;stroke-miterlimit:10;" d="M 249.183594 130.015625 L 235.269531 136.523438 "/>
<path style="fill:none;stroke-width:1.2;stroke-linecap:butt;stroke-linejoin:miter;stroke:rgb(0%,0%,100%);stroke-opacity:1;stroke-miterlimit:10;" d="M 94.140625 179.210938 L 86.269531 173.714844 "/>
<path style="fill:none;stroke-width:1.2;stroke-linecap:butt;stroke-linejoin:miter;stroke:rgb(0%,0%,0%);stroke-opacity:1;stroke-miterlimit:10;" d="M 86.269531 173.714844 L 78.398438 168.21875 "/>
<path style=" stroke:none;fill-rule:nonzero;fill:rgb(100%,100%,100%);fill-opacity:1;" d="M 87.140625 173.710938 L 101.140625 173.710938 L 101.140625 184.710938 L 87.140625 184.710938 Z M 87.140625 173.710938 "/>
<g style="fill:rgb(0%,0%,100%);fill-opacity:1;">
  <use xlink:href="#glyph0-2" x="87.140625" y="182.374023"/>
  <use xlink:href="#glyph0-3" x="94.118164" y="182.374023"/>
</g>
<path style="fill:none;stroke-width:1.2;stroke-linecap:butt;stroke-linejoin:miter;stroke:rgb(0%,0%,0%);stroke-opacity:1;stroke-miterlimit:10;" d="M 78.398438 168.21875 L 69.324219 171.355469 "/>
<path style="fill:none;stroke-width:1.2;stroke-linecap:butt;stroke-linejoin:miter;stroke:rgb(0%,0%,100%);stroke-opacity:1;stroke-miterlimit:10;" d="M 69.324219 171.355469 L 60.253906 174.492188 "/>
<path style="fill:none;stroke-width:1.2;stroke-linecap:butt;stroke-linejoin:miter;stroke:rgb(0%,0%,0%);stroke-opacity:1;stroke-miterlimit:10;" d="M 78.039062 149.019531 L 78.398438 168.21875 "/>
<path style="fill:none;stroke-width:1.2;stroke-linecap:butt;stroke-linejoin:miter;stroke:rgb(0%,0%,0%);stroke-opacity:1;stroke-miterlimit:10;" d="M 73.558594 151.027344 L 73.84375 166.382812 "/>
<path style="fill:none;stroke-width:1.2;stroke-linecap:butt;stroke-linejoin:miter;stroke:rgb(0%,0%,100%);stroke-opacity:1;stroke-miterlimit:10;" d="M 60.253906 174.492188 L 48.675781 159.171875 "/>
<path style="fill:none;stroke-width:1.2;stroke-linecap:butt;stroke-linejoin:miter;stroke:rgb(0%,0%,100%);stroke-opacity:1;stroke-miterlimit:10;" d="M 60.253906 174.492188 L 57.457031 183.675781 "/>
<path style="fill:none;stroke-width:1.2;stroke-linecap:butt;stroke-linejoin:miter;stroke:rgb(0%,0%,0%);stroke-opacity:1;stroke-miterlimit:10;" d="M 57.457031 183.675781 L 54.664062 192.859375 "/>
<path style=" stroke:none;fill-rule:nonzero;fill:rgb(100%,100%,100%);fill-opacity:1;" d="M 57.253906 168.992188 L 64.253906 168.992188 L 64.253906 179.992188 L 57.253906 179.992188 Z M 57.253906 168.992188 "/>
<g style="fill:rgb(0%,0%,100%);fill-opacity:1;">
  <use xlink:href="#glyph0-2" x="57.253906" y="177.655273"/>
</g>
<path style="fill:none;stroke-width:1.2;stroke-linecap:butt;stroke-linejoin:miter;stroke:rgb(0%,0%,100%);stroke-opacity:1;stroke-miterlimit:10;" d="M 48.675781 159.171875 L 54.175781 151.300781 "/>
<path style="fill:none;stroke-width:1.2;stroke-linecap:butt;stroke-linejoin:miter;stroke:rgb(0%,0%,0%);stroke-opacity:1;stroke-miterlimit:10;" d="M 54.175781 151.300781 L 59.671875 143.429688 "/>
<path style="fill:none;stroke-width:1.2;stroke-linecap:butt;stroke-linejoin:miter;stroke:rgb(0%,0%,100%);stroke-opacity:1;stroke-miterlimit:10;" d="M 53.480469 160.1875 L 57.878906 153.890625 "/>
<path style="fill:none;stroke-width:1.2;stroke-linecap:butt;stroke-linejoin:miter;stroke:rgb(0%,0%,0%);stroke-opacity:1;stroke-miterlimit:10;" d="M 57.878906 153.890625 L 62.273438 147.59375 "/>
<path style=" stroke:none;fill-rule:nonzero;fill:rgb(100%,100%,100%);fill-opacity:1;" d="M 45.675781 153.671875 L 52.675781 153.671875 L 52.675781 164.671875 L 45.675781 164.671875 Z M 45.675781 153.671875 "/>
<g style="fill:rgb(0%,0%,100%);fill-opacity:1;">
  <use xlink:href="#glyph0-2" x="45.675781" y="162.334961"/>
</g>
<path style="fill:none;stroke-width:1.2;stroke-linecap:butt;stroke-linejoin:miter;stroke:rgb(0%,0%,0%);stroke-opacity:1;stroke-miterlimit:10;" d="M 59.671875 143.429688 L 78.039062 149.019531 "/>
<path style="fill:none;stroke-width:1.2;stroke-linecap:butt;stroke-linejoin:miter;stroke:rgb(0%,0%,0%);stroke-opacity:1;stroke-miterlimit:10;" d="M 59.671875 143.429688 L 53.394531 125.285156 "/>
<path style="fill:none;stroke-width:1.2;stroke-linecap:butt;stroke-linejoin:miter;stroke:rgb(0%,0%,0%);stroke-opacity:1;stroke-miterlimit:10;" d="M 53.394531 125.285156 L 71.542969 119.011719 "/>
<path style="fill:none;stroke-width:1.2;stroke-linecap:butt;stroke-linejoin:miter;stroke:rgb(0%,0%,0%);stroke-opacity:1;stroke-miterlimit:10;" d="M 53.394531 125.285156 L 35.25 131.558594 "/>
<path style="fill:none;stroke-width:1.2;stroke-linecap:butt;stroke-linejoin:miter;stroke:rgb(0%,0%,0%);stroke-opacity:1;stroke-miterlimit:10;" d="M 53.394531 125.285156 L 47.121094 107.140625 "/>
</g>
</svg>

<svg xmlns="http://www.w3.org/2000/svg" xmlns:xlink="http://www.w3.org/1999/xlink" width="300pt" height="300pt" viewBox="0 0 300 300"><defs><symbol overflow="visible"><path d="M.453 1.594v-7.938h4.5v7.938zm.5-.5h3.5v-6.938h-3.5zm0 0"/></symbol><symbol overflow="visible" id="a"><path d="M3.547-5.953c-.65 0-1.164.242-1.547.72-.375.48-.563 1.13-.563 1.952 0 .835.188 1.49.563 1.967.383.48.898.72 1.547.72.644 0 1.156-.24 1.53-.72.376-.476.564-1.132.564-1.968 0-.822-.187-1.474-.562-1.954-.375-.477-.887-.72-1.53-.72zm0-.734c.914 0 1.648.312 2.203.937.55.617.828 1.438.828 2.47 0 1.042-.277 1.87-.828 2.483-.555.617-1.29.922-2.203.922-.93 0-1.668-.305-2.22-.922C.774-1.41.5-2.237.5-3.28c0-1.033.273-1.853.828-2.47.55-.625 1.29-.938 2.22-.938zm0 0"/></symbol><symbol overflow="visible" id="b"><path d="M.89-6.563H2.08l2.906 5.485v-5.484h.86V0H4.656L1.75-5.484V0H.89zm0 0"/></symbol><symbol overflow="visible" id="c"><path d="M.89-6.563h.876v2.688H5v-2.688h.89V0H5v-3.125H1.766V0H.89zm0 0"/></symbol></defs><g><path fill="#fff" d="M0 0h300v300H0z"/><path d="M110.93 151.75l-.825 9.566" stroke-width="1.2" stroke="#f00" stroke-miterlimit="10" fill="none"/><path d="M110.105 161.316l-.824 9.563" stroke-width="1.2" stroke="#000" stroke-miterlimit="10" fill="none"/><path d="M115.43 152.14l-.825 9.563" stroke-width="1.2" stroke="#f00" stroke-miterlimit="10" fill="none"/><path d="M114.605 161.703l-.824 9.567" stroke-width="1.2" stroke="#000" stroke-miterlimit="10" fill="none"/><path d="M109.18 146.445h8v11h-8zm0 0" fill="#fff"/><use xlink:href="#a" x="109.18" y="155.108" fill="#f00"/><path d="M111.53 171.074l7.872 5.496" stroke-width="1.2" stroke="#000" stroke-miterlimit="10" fill="none"/><path d="M119.402 176.57l7.87 5.496" stroke-width="1.2" stroke="#00f" stroke-miterlimit="10" fill="none"/><path d="M111.53 171.074l-8.694 4.067" stroke-width="1.2" stroke="#000" stroke-miterlimit="10" fill="none"/><path d="M102.836 175.14l-8.695 4.07M127.273 182.066L135.97 178" stroke-width="1.2" stroke="#00f" stroke-miterlimit="10" fill="none"/><path d="M135.97 178l8.694-4.07" stroke-width="1.2" stroke="#000" stroke-miterlimit="10" fill="none"/><path d="M120.273 176.566h14v11h-14zm0 0" fill="#fff"/><g fill="#00f"><use xlink:href="#b" x="120.273" y="185.229"/><use xlink:href="#c" x="127.251" y="185.229"/></g><path d="M144.664 173.93l15.742 10.992M148.824 171.324l12.594 8.793M146.313 154.8l-1.65 19.13M160.406 184.922l17.39-8.137M177.797 176.785l1.648-19.13M173.46 174.484l1.317-15.304M179.445 157.656l-15.742-10.992M179.445 157.656l17.39-8.136M163.703 146.664l-17.39 8.137M163.88 151.57l-13.915 6.508M196.836 149.52l15.742 10.992M212.578 160.512l17.39-8.137M229.97 152.375l15.74 10.992M234.13 149.77l12.593 8.796M231.617 133.246l-1.648 19.13M245.71 163.367l17.392-8.137M263.102 155.23l.824-9.562" stroke-width="1.2" stroke="#000" stroke-miterlimit="10" fill="none"/><path d="M263.926 145.668l.824-9.566" stroke-width="1.2" stroke="#00f" stroke-miterlimit="10" fill="none"/><path d="M258.766 152.93l.66-7.653" stroke-width="1.2" stroke="#000" stroke-miterlimit="10" fill="none"/><path d="M259.426 145.277l.66-7.648M264.75 136.102l-7.87-5.497" stroke-width="1.2" stroke="#00f" stroke-miterlimit="10" fill="none"/><path d="M256.88 130.605l-7.872-5.496" stroke-width="1.2" stroke="#000" stroke-miterlimit="10" fill="none"/><path d="M261.75 130.602h7v11h-7zm0 0" fill="#fff"/><use xlink:href="#b" x="261.75" y="139.265" fill="#00f"/><path d="M249.008 125.11l-17.39 8.136M249.184 130.016l-13.914 6.507" stroke-width="1.2" stroke="#000" stroke-miterlimit="10" fill="none"/><path d="M94.14 179.21l-7.87-5.495" stroke-width="1.2" stroke="#00f" stroke-miterlimit="10" fill="none"/><path d="M86.27 173.715l-7.872-5.496" stroke-width="1.2" stroke="#000" stroke-miterlimit="10" fill="none"/><path d="M87.14 173.71h14v11h-14zm0 0" fill="#fff"/><g fill="#00f"><use xlink:href="#b" x="87.141" y="182.374"/><use xlink:href="#c" x="94.118" y="182.374"/></g><path d="M78.398 168.22l-9.074 3.135" stroke-width="1.2" stroke="#000" stroke-miterlimit="10" fill="none"/><path d="M69.324 171.355l-9.07 3.137" stroke-width="1.2" stroke="#00f" stroke-miterlimit="10" fill="none"/><path d="M78.04 149.02l.358 19.2M73.56 151.027l.284 15.356" stroke-width="1.2" stroke="#000" stroke-miterlimit="10" fill="none"/><path d="M60.254 174.492l-11.578-15.32M60.254 174.492l-2.797 9.184" stroke-width="1.2" stroke="#00f" stroke-miterlimit="10" fill="none"/><path d="M57.457 183.676l-2.793 9.183" stroke-width="1.2" stroke="#000" stroke-miterlimit="10" fill="none"/><path d="M57.254 168.992h7v11h-7zm0 0" fill="#fff"/><use xlink:href="#b" x="57.254" y="177.655" fill="#00f"/><path d="M48.676 159.172l5.5-7.87" stroke-width="1.2" stroke="#00f" stroke-miterlimit="10" fill="none"/><path d="M54.176 151.3l5.496-7.87" stroke-width="1.2" stroke="#000" stroke-miterlimit="10" fill="none"/><path d="M53.48 160.188l4.4-6.297" stroke-width="1.2" stroke="#00f" stroke-miterlimit="10" fill="none"/><path d="M57.88 153.89l4.393-6.296" stroke-width="1.2" stroke="#000" stroke-miterlimit="10" fill="none"/><path d="M45.676 153.672h7v11h-7zm0 0" fill="#fff"/><use xlink:href="#b" x="45.676" y="162.335" fill="#00f"/><path d="M59.672 143.43l18.367 5.59M59.672 143.43l-6.277-18.145M53.395 125.285l18.148-6.273M53.395 125.285L35.25 131.56M53.395 125.285L47.12 107.14" stroke-width="1.2" stroke="#000" stroke-miterlimit="10" fill="none"/></g></svg>
